svg/u1f959.svg

<svg viewBox="0 0 128 128" xmlns="http://www.w3.org/2000/svg">
  <radialGradient id="SVGID_1_" cx="65.4371" cy="63.1627" gradientUnits="userSpaceOnUse" r="62.4234">
    <stop offset="0.5994" stop-color="#F9DEB8"/>
    <stop offset="0.881" stop-color="#F3C58B"/>
  </radialGradient>
  <path d="M96.88,13.43c-3.27-1.09-30.72-4.18-59.26,15.63S4.17,76.51,4.53,79.05 c0.36,2.54,11.27,33.99,40.72,41.99s55.1-5.27,63.74-15.48c10-11.82,16.22-28.13,15.15-44.87C122.14,29.43,96.88,13.43,96.88,13.43z " fill="url(#SVGID_1_)"/>
  <path d="M103.88,47.23c0.29,3.04,4.34,4.6,6.5,4.47c2.16-0.13,3.49-3.89,3.17-6.83 c-0.33-2.94-1.5-4.4-2.87-4.87c-1.33-0.46-2.45-0.24-3.1,0.6C107.11,41.19,103.7,45.34,103.88,47.23z" fill="#F9A156"/>
  <path d="M80.23,57.56c-0.39,1.02,0.48,2.03,1.55,2.21s2.39-0.06,2.45-1.37c0.06-1.31-1.01-1.67-1.91-1.79 C81.43,56.48,80.53,56.78,80.23,57.56z" fill="#F9A156"/>
  <path d="M71.88,78.63c0.42,1.43,2.33,3.04,3.04,3.64c0.72,0.6,3.03,0.2,4.3-0.24 c1.37-0.48,2.87-1.19,2.98-2.63c0.12-1.43-2.03-3.76-5.73-4.12C72.77,74.93,71.54,77.48,71.88,78.63z" fill="#F0A25B"/>
  <path d="M56.12,102.74c0.27,2.49,2.92,3.46,6.8,2.81c2-0.34,4.24-2.98,4.12-4.89 c-0.13-2.12-3.16-3.31-3.94-3.64C60.3,95.82,55.82,100,56.12,102.74z" fill="#F0A25B"/>
  <path d="M70.08,107.76c1.49,2.63,6.03,1.44,6.51-1.55c0.36-2.27-2.09-3.7-3.28-3.82 C72.11,102.26,68.85,105.57,70.08,107.76z" fill="#F0A25B"/>
  <path d="M24.43,17.15c0,0-11.36-0.73-15.95,10.92c-5.3,13.47,2.79,21.92,2.79,21.92s11.86-4.04,11.92-4.23 s6.19-16.03,6.19-16.03L24.43,17.15z" fill="#FF2820"/>
  <path d="M22.6,20.73c0,0-6.66,0.46-10.04,9.32s-0.57,13.88-0.18,14.92c0.39,1.04,1.95,3.45,1.95,3.45 s8.53-2.22,8.86-2.67c0.33-0.46,6.32-15.51,6.19-16.03s-3.45-8.99-3.45-8.99H22.6z" fill="#DF0E28"/>
  <path d="M21.3,22.75c0,0-2.28,0.2-4.89,3.39c-1.81,2.21-3.19,5.41-2.61,6.25c0.59,0.85,6.58,4.36,6.58,4.36 l1.63-2.41l-2.74-3.06c0,0,1.43-1.76,2.54-2.61s2.08-1.37,2.08-1.37L21.3,22.75z" fill="#FE6364"/>
  <path d="M18.04,37.8c0,0-4.76,0.39-5.21,1.24s0.52,3.71,1.04,5.08c0.52,1.37,0.98,2.87,0.98,2.87l4.95-1.76 l-0.26-7.3C19.54,37.93,18.04,37.67,18.04,37.8z" fill="#FE6364"/>
  <path d="M20.68,28.7c-0.82,0.58-1.66,0.35-2.47-0.73c-0.84-1.13-0.98-2.48-0.19-3.13 c0.78-0.65,1.72-0.36,2.59,1.01C21.22,26.81,21.34,28.24,20.68,28.7z" fill="#F2A65D"/>
  <path d="M15.36,28.74c-0.81,0.89-0.58,2.01,0.54,2.78s2.05,0.73,2.63,0c0.58-0.73,0.12-1.7-0.73-2.44 C17.07,28.46,15.91,28.14,15.36,28.74z" fill="#F2A65D"/>
  <path d="M13.53,41c0.07,0.96,0.77,1.51,2.2,1.31s2.01-0.66,2.01-1.62c0-0.97-1.19-1.35-2.28-1.24 C14.38,39.57,13.45,39.95,13.53,41z" fill="#F2A65D"/>
  <path d="M23.89,33.94c0,0-2.26,0.28-2.32-0.06c-0.06-0.33-0.91-5.94-0.99-10.43c-0.07-3.92-0.28-5.52,0-6.35 c0.28-0.83,3.48-4.75,5.79-6.24s4.44-2.43,5.71-2.49c1.27-0.06,5.88,0.56,6.21,0.89s-8.99,19.87-8.99,19.87L23.89,33.94z" fill="#6D4C42"/>
  <path d="M24.75,34.59c0,0,0.19-12.05,1.3-15.34s2.86-4.6,4.6-6.02c1.74-1.43,6.04-4.25,6.35-4.31 s2.9,0.21,4.76,1.27s4.41,3.79,4.41,3.79l-9,23.47l-12.54-0.93L24.75,34.59z" fill="#A1713E"/>
  <path d="M19.12,45.21c0,0-2.09-3.89-2.02-7.42c0.07-3.53,1.08-4.4,3.75-4.9s6.27-0.5,9.51,1.15 c1.44,0.74,3.24,1.95,3.24,1.95L30.8,46.14L19.12,45.21z" fill="#82BF42"/>
  <path d="M28.09,45.51c0,0-4.75-2.79-11.6-0.76S4.84,54.89,4.58,57.17c-0.25,2.28,1.46,6.21,1.9,7.22 c0.44,1.01,1.14,3.61,1.96,3.74c0.82,0.13,2.73,0.63,2.73-0.25c0-0.89,4.56-14.26,6.59-14.89s7.29-3.8,7.67-4.37 C25.81,48.04,28.16,45.38,28.09,45.51z" fill="#6D4C42"/>
  <path d="M13.39,72.82c-0.38-0.19-3.24-2.01-4.5-3.23c-0.37-0.36-1.11-2.08-1.11-2.08S8.01,68,8.9,67.88 s1.01-1.27,0.82-2.98c-0.19-1.71-1.01-6.4-0.51-7.22s5.44-7.41,7.22-8.04s8.69-2.16,11.03-2.23s4.88,3.3,4.88,3.3l3.74,10.52 L13.39,72.82z" fill="#A2703D"/>
  <path d="M8.17,80.5c0,0-0.18-2.44,0.43-4c0.44-1.13,0.69-2.89,2.7-4.37c1.32-0.97,2.69-0.62,2.69-0.62 s-2.17-6.4,0.91-9.37c2.92-2.82,5.89-1.02,5.89-1.02s-0.89-4.24,2.98-5.78c3.87-1.54,10.02,3.35,10.02,3.35l2.21-4.56l-2.24-22.23 c0,0-0.54-4.08,0.28-6.35s1.68-3.18,1.68-3.18s-0.99-5.21,2.37-8.58s8.98-1.93,8.98-1.93s-1.24-6.57,2.43-8.32 c2.67-1.27,4.91,0.42,4.91,0.42s2.62-2.53,8.1-1.78c6.94,0.96,10.82,8.71,10.82,8.71s2.91-3.76,8.15-2.17 c5.6,1.69,5.7,8.04,5.7,8.04L80.21,27.1l-2.08,23.61c0,0-26.59,19.72-26.98,19.85c-0.39,0.13-21.4,8.82-23.48,8.82 s-17.51,2.98-17.51,2.98L8.17,80.5z" fill="#81C13E"/>
  <path d="M66.24,22.08c-0.2-0.07-7.49-4.88-7.49-4.88l-6.38,3.91L47.88,34c0,0-0.69,7.03-0.36,8.01 s1.04,4.31,1.24,4.31s18.47,0.38,17.75-4.18s-3.39-8.92-3.06-9.64C63.77,31.79,66.24,22.08,66.24,22.08z" fill="#A46E40"/>
  <path d="M59.34,18.96c-0.97-0.1-8.53,6.9-9.38,9.44c-0.85,2.54,1.04,12.9,0.13,13.29s-2.15,0.85-2.54,0.39 c-0.39-0.46-3-11.72-2.74-13.61c0.26-1.89,2.15-5.08,4.1-7.75c1.19-1.63,4.75-4.62,5.4-4.95c0.65-0.33,3.58-0.13,4.82,0.2 c1.24,0.33,3.78,2.08,4.82,2.8c1.04,0.72,3.84,2.74,3,3.71C66.11,23.45,60.64,19.09,59.34,18.96z" fill="#6D4C42"/>
  <path d="M42.28,73.07c-0.25,0-4.65-6.45-1.48-18.01c3.27-11.93,13.84-14.15,20.55-13.7 c8.11,0.55,10.25,4.03,10.25,4.03l6.32,3.74L56.94,68.63C56.94,68.63,42.67,73.07,42.28,73.07z" fill="#FF2422"/>
  <path d="M61.81,35.69c0,0-0.07,2.31-2.06,2.22c-1.07-0.05-5.06-6.36-12.15-6.23 c-8.33,0.14-12.61,6.75-11.83,14.51c0.78,7.76,6.48,10.32,6.48,10.96s-1.2,3.12-1.2,3.12l-5.28-2.62l-3.56-7.61l0.21-12.45 l7.61-9.32l6.33-0.85l7.97,1.07l5.05,3.49C59.39,31.95,61.38,34.69,61.81,35.69z" fill="#FEFEF6"/>
  <path d="M34.92,30.46c6.87-7.29,16.96-5.07,22.51-1.58c1.95,1.23,5.12,4.75,4.97,5.28 c-0.16,0.53-0.32,2.27-0.69,2.17c-0.37-0.11-3.96-4.28-7.45-5.97c-3.49-1.69-10.94-3.06-16.59,1.95c-6.74,5.98-5.39,18.7-1.64,22.72 c3.75,4.02,5.72,3.89,5.49,4.44c-0.37,0.9-0.53,1.58-1.32,1.8c-0.79,0.21-11.04-4.44-10.46-17.54 C30.07,36.32,32.07,33.48,34.92,30.46z" fill="#D45B89"/>
  <path d="M20.41,62.49c0,0,1.73,0.45,2.1,0.19c0.37-0.26-1-9.14,6.87-12.26s11.46,2.96,12.52,2.96 S44,50.48,44,50.48s-7.08-5.07-7.24-5.12c-0.16-0.05-8.88,0.63-9.03,0.74c-0.16,0.11-5.6,2.64-6.45,6.02 C20.44,55.5,20.41,62.49,20.41,62.49z" fill="#FEFEF6"/>
  <path d="M18.49,62.1c0,0-1.7-12.38,7.77-17.12c10.57-5.28,18.44,3.96,18.44,3.96s-0.37,2.38-0.85,2.54 c-0.48,0.16-6.9-7.23-15.44-3.59c-8.68,3.7-7.49,14.73-7.49,14.73S19.01,62.21,18.49,62.1z" fill="#D45B89"/>
  <path d="M83.53,19.51c-0.76,0.97-5.07-0.7-10.76,2.81c-6.18,3.81-6.01,15.05-1.79,19.49 c2.88,3.04,4.16,3.05,4.83,3.9c0.62,0.78,0.08,3.04-0.16,2.81c-0.23-0.23-6.39-2.11-6.71-3.04c-0.31-0.94-5.22-8.19-5.3-9.51 c-0.08-1.33-0.16-9.2,2.03-12.4s6.47-6.63,7.72-6.63c1.25,0,10.29,0.31,10.29,0.31S84.07,18.81,83.53,19.51z" fill="#FEFEF6"/>
  <path d="M62.79,27.23c-1.72,6.93-0.55,14.19,4.83,18.71s8.19,3.2,8.19,3.2l0.23-1.48 c0,0-11.77-3.98-10.21-17.31c1.56-13.33,17.85-13.1,17.85-13.1s0.08-1.33-0.55-1.87S66.22,13.43,62.79,27.23z" fill="#D45B89"/>
  <path d="M92.32,17.78c0,0-1.78-1.16-3.96-1.39s-6.39,1.87-8.11,4.13c-1.72,2.26-4.6,9.24-4.99,12.55 c-0.28,2.34-0.23,13.8,0.55,16.06s0.78,2.26,0.78,2.26s11.07-9.36,11.15-10.99C87.81,38.77,92.32,17.78,92.32,17.78z" fill="#6D4C42"/>
  <path d="M97.79,23.8c0,0-4.21-6.63-6.63-6.32c-2.42,0.31-6.08,4.68-8.03,8.65s-1.79,5.07-2.34,8.03 c-0.55,2.96-1.4,14.03-1.4,14.03l13.1-14.66L97.79,23.8z" fill="#9C6C3B"/>
  <path d="M73.55,52.99c0,0-9.31-12.83-22.86-4.24c-10.46,6.63-4.88,23.01-4.88,23.01l6.25-4.07L73.55,52.99z" fill="#DB0D28"/>
  <path d="M47.26,67.57c-0.8-0.8-0.64-7.12,0.19-9.98c0.83-2.86,3.18-7,4.9-7.06s7.69,8.33,7.69,8.33 s0.38,1.08-0.06,1.59c-0.45,0.51-1.72-0.13-2.04-0.38s-3.43-3.05-3.43-3.05s-0.95,1.27-1.4,3.37c-0.45,2.13-0.19,3.82-0.19,3.82 l5.66,0.38L54,68.65C54,68.65,48.15,68.46,47.26,67.57z" fill="#FF6362"/>
  <path d="M64.43,48.62c-1.14,0.32-2.13,2.61-2.8,4.77c-0.83,2.67-1.02,5.02-0.83,5.53 c0.19,0.51,1.08,1.08,1.78,0.45c0.7-0.64,1.91-4.71,1.91-4.71s1.53,0.89,2.42,1.78c0.89,0.89,1.46,1.4,1.46,1.4l4.01-3.12 c0,0-1.72-2.04-3.37-3.56C67.36,49.63,65.24,48.39,64.43,48.62z" fill="#FF6362"/>
  <path d="M48.19,58.17c-0.64,1.02-0.21,2.08,1.03,2.64s2.15,0.35,2.59-0.47c0.44-0.83-0.19-1.69-1.16-2.26 C49.82,57.59,48.62,57.48,48.19,58.17z" fill="#F2A65D"/>
  <path d="M51.32,53.34c-0.71,0.74-0.4,2,0.29,2.58s1.71,0.98,2.47,0.25c1.03-0.98,0.18-2.18-0.29-2.58 C53.32,53.19,52.15,52.47,51.32,53.34z" fill="#F2A65D"/>
  <path d="M64.53,51.63c-0.37,0.8-0.29,1.96,0.47,2.29c0.74,0.32,1.67-0.22,2-1.12 c0.33-0.91,0.36-1.92-0.36-2.25C65.9,50.22,65.07,50.44,64.53,51.63z" fill="#F2A65D"/>
  <path d="M47.87,63.42c-0.45,0.81,0.07,1.96,1.41,2.36c1.34,0.4,1.74-0.25,1.92-0.87 c0.18-0.62-0.33-1.45-1.27-1.81C49,62.74,48.24,62.77,47.87,63.42z" fill="#F2A65D"/>
  <path d="M6.58,80.84c-0.17,2.03,2.78,3.22,8.07,2.78c5.29-0.44,22.47-4.17,34.26-9.64 c10.03-4.65,30.06-20.23,34.69-24.75c4.63-4.52,17.58-22.6,16.97-27.01c-0.42-3.07-3.31-2.54-4.19-1.32s0.77,1.54-0.66,3.64 S90.36,34.69,80.9,44.71c-7.44,7.88-25.13,21.94-37.7,26.56s-16.53,5.62-18.96,6.28s-14,2.21-14.66,2.21S6.8,78.19,6.58,80.84z" fill="#FEEBCC"/>
</svg>

<svg viewBox="0 0 128 128" xmlns="http://www.w3.org/2000/svg">
  <defs>
    <radialGradient id="SVGID_1_" cx="65.4371" cy="63.1627" gradientUnits="userSpaceOnUse" r="62.4234">
      <stop offset="0.5994" stop-color="#F9DEB8"/>
      <stop offset="0.881" stop-color="#F3C58B"/>
    </radialGradient>
  </defs>
  <path d="M96.88,13.43 C93.61,12.34 66.16,9.25 37.62,29.06 C9.08,48.87 4.17,76.51 4.53,79.05 C4.89,81.59 15.8,113.04 45.25,121.04 C74.7,129.04 100.35,115.77 108.99,105.56 C118.99,93.74 125.21,77.43 124.14,60.69 C122.14,29.43 96.88,13.43 96.88,13.43 Z" fill="url(#SVGID_1_)"/>
  <path d="M103.88,47.23 C104.17,50.27 108.22,51.83 110.38,51.7 C112.54,51.57 113.87,47.81 113.55,44.87 C113.22,41.93 112.05,40.47 110.68,40 C109.35,39.54 108.23,39.76 107.58,40.6 C107.11,41.19 103.7,45.34 103.88,47.23 Z" fill="#F9A156"/>
  <path d="M80.23,57.56 C79.84,58.58 80.71,59.59 81.78,59.77 C82.85,59.95 84.17,59.71 84.23,58.4 C84.29,57.09 83.22,56.73 82.32,56.61 C81.43,56.48 80.53,56.78 80.23,57.56 Z" fill="#F9A156"/>
  <path d="M71.88,78.63 C72.3,80.06 74.21,81.67 74.92,82.27 C75.64,82.87 77.95,82.47 79.22,82.03 C80.59,81.55 82.09,80.84 82.2,79.4 C82.32,77.97 80.17,75.64 76.47,75.28 C72.77,74.93 71.54,77.48 71.88,78.63 Z" fill="#F0A25B"/>
  <path d="M56.12,102.74 C56.39,105.23 59.04,106.2 62.92,105.55 C64.92,105.21 67.16,102.57 67.04,100.66 C66.91,98.54 63.88,97.35 63.1,97.02 C60.3,95.82 55.82,100 56.12,102.74 Z" fill="#F0A25B"/>
  <path d="M70.08,107.76 C71.57,110.39 76.11,109.2 76.59,106.21 C76.95,103.94 74.5,102.51 73.31,102.39 C72.11,102.26 68.85,105.57 70.08,107.76 Z" fill="#F0A25B"/>
  <path d="M24.43,17.15 C24.43,17.15 13.07,16.42 8.48,28.07 C3.18,41.54 11.27,49.99 11.27,49.99 C11.27,49.99 23.13,45.95 23.19,45.76 C23.25,45.57 29.38,29.73 29.38,29.73 L24.43,17.15 Z" fill="#FF2820"/>
  <path d="M22.6,20.73 C22.6,20.73 15.94,21.19 12.56,30.05 C9.18,38.91 11.99,43.93 12.38,44.97 C12.77,46.01 14.33,48.42 14.33,48.42 C14.33,48.42 22.86,46.2 23.19,45.75 C23.52,45.29 29.51,30.24 29.38,29.72 C29.25,29.2 25.93,20.73 25.93,20.73 L22.6,20.73 Z" fill="#DF0E28"/>
  <path d="M21.3,22.75 C21.3,22.75 19.02,22.95 16.41,26.14 C14.6,28.35 13.22,31.55 13.8,32.39 C14.39,33.24 20.38,36.75 20.38,36.75 L22.01,34.34 L19.27,31.28 C19.27,31.28 20.7,29.52 21.81,28.67 C22.92,27.82 23.89,27.3 23.89,27.3 L21.3,22.75 Z" fill="#FE6364"/>
  <path d="M18.04,37.8 C18.04,37.8 13.28,38.19 12.83,39.04 C12.38,39.89 13.35,42.75 13.87,44.12 C14.39,45.49 14.85,46.99 14.85,46.99 L19.8,45.23 L19.54,37.93 C19.54,37.93 18.04,37.67 18.04,37.8 Z" fill="#FE6364"/>
  <path d="M20.68,28.7 C19.86,29.28 19.02,29.05 18.21,27.97 C17.37,26.84 17.23,25.49 18.02,24.84 C18.8,24.19 19.74,24.48 20.61,25.85 C21.22,26.81 21.34,28.24 20.68,28.7 Z" fill="#F2A65D"/>
  <path d="M15.36,28.74 C14.55,29.63 14.78,30.75 15.9,31.52 C17.02,32.29 17.95,32.25 18.53,31.52 C19.11,30.79 18.65,29.82 17.8,29.08 C17.07,28.46 15.91,28.14 15.36,28.74 Z" fill="#F2A65D"/>
  <path d="M13.53,41 C13.6,41.96 14.3,42.51 15.73,42.31 C17.16,42.11 17.74,41.65 17.74,40.69 C17.74,39.72 16.55,39.34 15.46,39.45 C14.38,39.57 13.45,39.95 13.53,41 Z" fill="#F2A65D"/>
  <path d="M23.89,33.94 C23.89,33.94 21.63,34.22 21.57,33.88 C21.51,33.55 20.66,27.94 20.58,23.45 C20.51,19.53 20.3,17.93 20.58,17.1 C20.86,16.27 24.06,12.35 26.37,10.86 C28.68,9.37 30.81,8.43 32.08,8.37 C33.35,8.31 37.96,8.93 38.29,9.26 C38.62,9.59 29.3,29.13 29.3,29.13 L23.89,33.94 Z" fill="#6D4C42"/>
  <path d="M24.75,34.59 C24.75,34.59 24.94,22.54 26.05,19.25 C27.16,15.96 28.91,14.65 30.65,13.23 C32.39,11.8 36.69,8.98 37,8.92 C37.31,8.86 39.9,9.13 41.76,10.19 C43.62,11.25 46.17,13.98 46.17,13.98 L37.17,37.45 L24.63,36.52 L24.75,34.59 Z" fill="#A1713E"/>
  <path d="M19.12,45.21 C19.12,45.21 17.03,41.32 17.1,37.79 C17.17,34.26 18.18,33.39 20.85,32.89 C23.52,32.39 27.12,32.39 30.36,34.04 C31.8,34.78 33.6,35.99 33.6,35.99 L30.8,46.14 L19.12,45.21 Z" fill="#82BF42"/>
  <path d="M28.09,45.51 C28.09,45.51 23.34,42.72 16.49,44.75 C9.64,46.78 4.84,54.89 4.58,57.17 C4.33,59.45 6.04,63.38 6.48,64.39 C6.92,65.4 7.62,68 8.44,68.13 C9.26,68.26 11.17,68.76 11.17,67.88 C11.17,66.99 15.73,53.62 17.76,52.99 C19.79,52.36 25.05,49.19 25.43,48.62 C25.81,48.04 28.16,45.38 28.09,45.51 Z" fill="#6D4C42"/>
  <path d="M13.39,72.82 C13.01,72.63 10.15,70.81 8.89,69.59 C8.52,69.23 7.78,67.51 7.78,67.51 C7.78,67.51 8.01,68 8.9,67.88 C9.79,67.76 9.91,66.61 9.72,64.9 C9.53,63.19 8.71,58.5 9.21,57.68 C9.71,56.86 14.65,50.27 16.43,49.64 C18.21,49.01 25.12,47.48 27.46,47.41 C29.8,47.34 32.34,50.71 32.34,50.71 L36.08,61.23 L13.39,72.82 Z" fill="#A2703D"/>
  <path d="M8.17,80.5 C8.17,80.5 7.99,78.06 8.6,76.5 C9.04,75.37 9.29,73.61 11.3,72.13 C12.62,71.16 13.99,71.51 13.99,71.51 C13.99,71.51 11.82,65.11 14.9,62.14 C17.82,59.32 20.79,61.12 20.79,61.12 C20.79,61.12 19.9,56.88 23.77,55.34 C27.64,53.8 33.79,58.69 33.79,58.69 L36,54.13 L33.76,31.9 C33.76,31.9 33.22,27.82 34.04,25.55 C34.86,23.28 35.72,22.37 35.72,22.37 C35.72,22.37 34.73,17.16 38.09,13.79 C41.45,10.42 47.07,11.86 47.07,11.86 C47.07,11.86 45.83,5.29 49.5,3.54 C52.17,2.27 54.41,3.96 54.41,3.96 C54.41,3.96 57.03,1.43 62.51,2.18 C69.45,3.14 73.33,10.89 73.33,10.89 C73.33,10.89 76.24,7.13 81.48,8.72 C87.08,10.41 87.18,16.76 87.18,16.76 L80.21,27.1 L78.13,50.71 C78.13,50.71 51.54,70.43 51.15,70.56 C50.76,70.69 29.75,79.38 27.67,79.38 C25.59,79.38 10.16,82.36 10.16,82.36 L8.17,80.5 Z" fill="#81C13E"/>
  <path d="M66.24,22.08 C66.04,22.01 58.75,17.2 58.75,17.2 L52.37,21.11 L47.88,34 C47.88,34 47.19,41.03 47.52,42.01 C47.85,42.99 48.56,46.32 48.76,46.32 C48.96,46.32 67.23,46.7 66.51,42.14 C65.79,37.58 63.12,33.22 63.45,32.5 C63.77,31.79 66.24,22.08 66.24,22.08 Z" fill="#A46E40"/>
  <path d="M59.34,18.96 C58.37,18.86 50.81,25.86 49.96,28.4 C49.11,30.94 51,41.3 50.09,41.69 C49.18,42.08 47.94,42.54 47.55,42.08 C47.16,41.62 44.55,30.36 44.81,28.47 C45.07,26.58 46.96,23.39 48.91,20.72 C50.1,19.09 53.66,16.1 54.31,15.77 C54.96,15.44 57.89,15.64 59.13,15.97 C60.37,16.3 62.91,18.05 63.95,18.77 C64.99,19.49 67.79,21.51 66.95,22.48 C66.11,23.45 60.64,19.09 59.34,18.96 Z" fill="#6D4C42"/>
  <path d="M42.28,73.07 C42.03,73.07 37.63,66.62 40.8,55.06 C44.07,43.13 54.64,40.91 61.35,41.36 C69.46,41.91 71.6,45.39 71.6,45.39 L77.92,49.13 L56.94,68.63 C56.94,68.63 42.67,73.07 42.28,73.07 Z" fill="#FF2422"/>
  <path d="M61.81,35.69 C61.81,35.69 61.74,38 59.75,37.91 C58.68,37.86 54.69,31.55 47.6,31.68 C39.27,31.82 34.99,38.43 35.77,46.19 C36.55,53.95 42.25,56.51 42.25,57.15 C42.25,57.79 41.05,60.27 41.05,60.27 L35.77,57.65 L32.21,50.04 L32.42,37.59 L40.03,28.27 L46.36,27.42 L54.33,28.49 L59.38,31.98 C59.39,31.95 61.38,34.69 61.81,35.69 Z" fill="#FEFEF6"/>
  <path d="M34.92,30.46 C41.79,23.17 51.88,25.39 57.43,28.88 C59.38,30.11 62.55,33.63 62.4,34.16 C62.24,34.69 62.08,36.43 61.71,36.33 C61.34,36.22 57.75,32.05 54.26,30.36 C50.77,28.67 43.32,27.3 37.67,32.31 C30.93,38.29 32.28,51.01 36.03,55.03 C39.78,59.05 41.75,58.92 41.52,59.47 C41.15,60.37 40.99,61.05 40.2,61.27 C39.41,61.48 29.16,56.83 29.74,43.73 C30.07,36.32 32.07,33.48 34.92,30.46 Z" fill="#D45B89"/>
  <path d="M20.41,62.49 C20.41,62.49 22.14,62.94 22.51,62.68 C22.88,62.42 21.51,53.54 29.38,50.42 C37.25,47.3 40.84,53.38 41.9,53.38 C42.96,53.38 44,50.48 44,50.48 C44,50.48 36.92,45.41 36.76,45.36 C36.6,45.31 27.88,45.99 27.73,46.1 C27.57,46.21 22.13,48.74 21.28,52.12 C20.44,55.5 20.41,62.49 20.41,62.49 Z" fill="#FEFEF6"/>
  <path d="M18.49,62.1 C18.49,62.1 16.79,49.72 26.26,44.98 C36.83,39.7 44.7,48.94 44.7,48.94 C44.7,48.94 44.33,51.32 43.85,51.48 C43.37,51.64 36.95,44.25 28.41,47.89 C19.73,51.59 20.92,62.62 20.92,62.62 C20.92,62.62 19.01,62.21 18.49,62.1 Z" fill="#D45B89"/>
  <path d="M83.53,19.51 C82.77,20.48 78.46,18.81 72.77,22.32 C66.59,26.13 66.76,37.37 70.98,41.81 C73.86,44.85 75.14,44.86 75.81,45.71 C76.43,46.49 75.89,48.75 75.65,48.52 C75.42,48.29 69.26,46.41 68.94,45.48 C68.63,44.54 63.72,37.29 63.64,35.97 C63.56,34.64 63.48,26.77 65.67,23.57 C67.86,20.37 72.14,16.94 73.39,16.94 C74.64,16.94 83.68,17.25 83.68,17.25 C83.68,17.25 84.07,18.81 83.53,19.51 Z" fill="#FEFEF6"/>
  <path d="M62.79,27.23 C61.07,34.16 62.24,41.42 67.62,45.94 C73,50.46 75.81,49.14 75.81,49.14 L76.04,47.66 C76.04,47.66 64.27,43.68 65.83,30.35 C67.39,17.02 83.68,17.25 83.68,17.25 C83.68,17.25 83.76,15.92 83.13,15.38 C82.5,14.84 66.22,13.43 62.79,27.23 Z" fill="#D45B89"/>
  <path d="M92.32,17.78 C92.32,17.78 90.54,16.62 88.36,16.39 C86.18,16.16 81.97,18.26 80.25,20.52 C78.53,22.78 75.65,29.76 75.26,33.07 C74.98,35.41 75.03,46.87 75.81,49.13 C76.59,51.39 76.59,51.39 76.59,51.39 C76.59,51.39 87.66,42.03 87.74,40.4 C87.81,38.77 92.32,17.78 92.32,17.78 Z" fill="#6D4C42"/>
  <path d="M97.79,23.8 C97.79,23.8 93.58,17.17 91.16,17.48 C88.74,17.79 85.08,22.16 83.13,26.13 C81.18,30.1 81.34,31.2 80.79,34.16 C80.24,37.12 79.39,48.19 79.39,48.19 L92.49,33.53 L97.79,23.8 Z" fill="#9C6C3B"/>
  <path d="M73.55,52.99 C73.55,52.99 64.24,40.16 50.69,48.75 C40.23,55.38 45.81,71.76 45.81,71.76 L52.06,67.69 L73.55,52.99 Z" fill="#DB0D28"/>
  <path d="M47.26,67.57 C46.46,66.77 46.62,60.45 47.45,57.59 C48.28,54.73 50.63,50.59 52.35,50.53 C54.07,50.47 60.04,58.86 60.04,58.86 C60.04,58.86 60.42,59.94 59.98,60.45 C59.53,60.96 58.26,60.32 57.94,60.07 C57.62,59.82 54.51,57.02 54.51,57.02 C54.51,57.02 53.56,58.29 53.11,60.39 C52.66,62.52 52.92,64.21 52.92,64.21 L58.58,64.59 L54,68.65 C54,68.65 48.15,68.46 47.26,67.57 Z" fill="#FF6362"/>
  <path d="M64.43,48.62 C63.29,48.94 62.3,51.23 61.63,53.39 C60.8,56.06 60.61,58.41 60.8,58.92 C60.99,59.43 61.88,60 62.58,59.37 C63.28,58.73 64.49,54.66 64.49,54.66 C64.49,54.66 66.02,55.55 66.91,56.44 C67.8,57.33 68.37,57.84 68.37,57.84 L72.38,54.72 C72.38,54.72 70.66,52.68 69.01,51.16 C67.36,49.63 65.24,48.39 64.43,48.62 Z" fill="#FF6362"/>
  <path d="M48.19,58.17 C47.55,59.19 47.98,60.25 49.22,60.81 C50.46,61.37 51.37,61.16 51.81,60.34 C52.25,59.51 51.62,58.65 50.65,58.08 C49.82,57.59 48.62,57.48 48.19,58.17 Z" fill="#F2A65D"/>
  <path d="M51.32,53.34 C50.61,54.08 50.92,55.34 51.61,55.92 C52.3,56.5 53.32,56.9 54.08,56.17 C55.11,55.19 54.26,53.99 53.79,53.59 C53.32,53.19 52.15,52.47 51.32,53.34 Z" fill="#F2A65D"/>
  <path d="M64.53,51.63 C64.16,52.43 64.24,53.59 65,53.92 C65.74,54.24 66.67,53.7 67,52.8 C67.33,51.89 67.36,50.88 66.64,50.55 C65.9,50.22 65.07,50.44 64.53,51.63 Z" fill="#F2A65D"/>
  <path d="M47.87,63.42 C47.42,64.23 47.94,65.38 49.28,65.78 C50.62,66.18 51.02,65.53 51.2,64.91 C51.38,64.29 50.87,63.46 49.93,63.1 C49,62.74 48.24,62.77 47.87,63.42 Z" fill="#F2A65D"/>
  <path d="M6.58,80.84 C6.41,82.87 9.36,84.06 14.65,83.62 C19.94,83.18 37.12,79.45 48.91,73.98 C58.94,69.33 78.97,53.75 83.6,49.23 C88.23,44.71 101.18,26.63 100.57,22.22 C100.15,19.15 97.26,19.68 96.38,20.9 C95.5,22.12 97.15,22.44 95.72,24.54 C94.29,26.64 90.36,34.69 80.9,44.71 C73.46,52.59 55.77,66.65 43.2,71.27 C30.63,75.89 26.67,76.89 24.24,77.55 C21.81,78.21 10.24,79.76 9.58,79.76 C8.92,79.76 6.8,78.19 6.58,80.84 Z" fill="#FEEBCC"/>
</svg>
